X: 136
T:Doctor Gilbert's
M:C|
L:1/8
R:reel
Z:id:hn-reel-80
K:Edor
eBBA B2 ed| (3Bcd Ad BAGF | EDB,D G2FG | EDB,E DB,A,2|
B,DEF DE B,2 | (3GFE (3FED E2 GA | Bded Bdgb |1 afdf e3 z|2 afdf efgf|| 
|: eB~B2 gB~B2| defg afdf | g2 bg fgaf | edef edBd|
afdf edBc| (3dcB AF AF D2| EG=cA Bdgb |1 afdf efgf|2 afdf e3 z||
